source/camera.svg

<svg width="24" height="24" viewBox="0 0 24 24" fill="none" xmlns="http://www.w3.org/2000/svg">
<path fill-rule="evenodd" clip-rule="evenodd" d="M8.32918 2.66459C8.45622 2.4105 8.71592 2.25 9 2.25H15C15.2841 2.25 15.5438 2.4105 15.6708 2.66459L17.1708 5.66459C17.2871 5.89708 17.2746 6.17319 17.138 6.3943C17.0013 6.61541 16.7599 6.75 16.5 6.75H7.5C7.24007 6.75 6.99867 6.61541 6.86201 6.3943C6.72536 6.17319 6.71293 5.89708 6.82918 5.66459L8.32918 2.66459ZM9.46353 3.75L8.71353 5.25H15.2865L14.5365 3.75H9.46353Z" fill="#1C1B1F"/>
<path fill-rule="evenodd" clip-rule="evenodd" d="M3.5 6.75C3.08579 6.75 2.75 7.08579 2.75 7.5V19.5C2.75 19.9142 3.08579 20.25 3.5 20.25H20.5C20.9142 20.25 21.25 19.9142 21.25 19.5V7.5C21.25 7.08579 20.9142 6.75 20.5 6.75H3.5ZM1.25 7.5C1.25 6.25736 2.25736 5.25 3.5 5.25H20.5C21.7426 5.25 22.75 6.25736 22.75 7.5V19.5C22.75 20.7426 21.7426 21.75 20.5 21.75H3.5C2.25736 21.75 1.25 20.7426 1.25 19.5V7.5Z" fill="#1C1B1F"/>
<path fill-rule="evenodd" clip-rule="evenodd" d="M7.25 13.5C7.25 10.8766 9.37664 8.75 12 8.75C14.6234 8.75 16.75 10.8766 16.75 13.5C16.75 16.1234 14.6234 18.25 12 18.25C9.37664 18.25 7.25 16.1234 7.25 13.5ZM12 10.25C10.2051 10.25 8.75 11.7051 8.75 13.5C8.75 15.2949 10.2051 16.75 12 16.75C13.7949 16.75 15.25 15.2949 15.25 13.5C15.25 11.7051 13.7949 10.25 12 10.25Z" fill="#1C1B1F"/>
</svg>

<svg xmlns="http://www.w3.org/2000/svg" width="24" height="24" fill="none" viewBox="0 0 24 24">
  <path fill="#1C1B1F" fill-rule="evenodd" d="M8.33 2.665A.75.75 0 0 1 9 2.25h6a.75.75 0 0 1 .67.415l1.5 3a.75.75 0 0 1-.67 1.085h-9a.75.75 0 0 1-.67-1.085l1.5-3ZM9.463 3.75l-.75 1.5h6.572l-.75-1.5h-5.07Z" clip-rule="evenodd"/>
  <path fill="#1C1B1F" fill-rule="evenodd" d="M3.5 6.75a.75.75 0 0 0-.75.75v12c0 .414.336.75.75.75h17a.75.75 0 0 0 .75-.75v-12a.75.75 0 0 0-.75-.75h-17Zm-2.25.75A2.25 2.25 0 0 1 3.5 5.25h17a2.25 2.25 0 0 1 2.25 2.25v12a2.25 2.25 0 0 1-2.25 2.25h-17a2.25 2.25 0 0 1-2.25-2.25v-12Z" clip-rule="evenodd"/>
  <path fill="#1C1B1F" fill-rule="evenodd" d="M7.25 13.5a4.75 4.75 0 1 1 9.5 0 4.75 4.75 0 0 1-9.5 0ZM12 10.25a3.25 3.25 0 1 0 0 6.5 3.25 3.25 0 0 0 0-6.5Z" clip-rule="evenodd"/>
</svg>
